storage/app/icons/phosphoricons/regular/sim-card.svg

<svg xmlns="http://www.w3.org/2000/svg" fill="currentColor" viewBox="0 0 256 256"><path d="m213.66 82.34-56-56A8 8 0 0 0 152 24H56a16 16 0 0 0-16 16v176a16 16 0 0 0 16 16h144a16 16 0 0 0 16-16V88a8 8 0 0 0-2.34-5.66M200 216H56V40h92.69L200 91.31zm-24-104H80a8 8 0 0 0-8 8v72a8 8 0 0 0 8 8h96a8 8 0 0 0 8-8v-72a8 8 0 0 0-8-8m-8 72h-16v-32a8 8 0 0 0-16 0v32h-16v-32a8 8 0 0 0-16 0v32H88v-56h80Z"/></svg>

<svg xmlns="http://www.w3.org/2000/svg" viewBox="0 0 256 256" fill="currentColor"><path d="M213.66,82.34l-56-56A8,8,0,0,0,152,24H56A16,16,0,0,0,40,40V216a16,16,0,0,0,16,16H200a16,16,0,0,0,16-16V88A8,8,0,0,0,213.66,82.34ZM200,216H56V40h92.69L200,91.31V216ZM176,112H80a8,8,0,0,0-8,8v72a8,8,0,0,0,8,8h96a8,8,0,0,0,8-8V120A8,8,0,0,0,176,112Zm-8,72H152V152a8,8,0,0,0-16,0v32H120V152a8,8,0,0,0-16,0v32H88V128h80Z"/></svg>
